X:485
%%etbk:tnset id:204,pos:1,rep:3x,ant:
%%etbk:skill ?
T: The Green Glens of Gweedore
M: 6/8
H: Created 2013-07-08 /  Modified 2013-07-08
R: song
L:1/8
K:Dm
C | "C"G>AB G2 C  | G2E FEC | "B"B,2A,/B,/ "F"C2D | "C"C3-C2c |
"F"A>GF G>AB | "C"c>BA G2c | B>AG FCD | "B (gm)"B,3-B,2c | 
"F"A>GF G>AB | "C"c>BA G2c | B>AG FCD | "B (gm)"B,3-B,2C | 
"C"G>AB G2C | G2E FEC | "B"B,2A,/B,/ "F"C2D | "C"C3-C2 |
| "Zwischentei kurz""B"CD_EFG_A B3 | "F"F3 "C"G3|
|"Intro/Zwischenteil lang""F"[F3E3] [F3D3] | [F3C3]-[F3C3]| [F3E3] [F3D3] | [F3C3] "B"[F3B,3]|-[F3B,3]-[F2B,2]|
